X: 27188
T: Miss Moneypenny Of Pitmilly
R: reel
M: 4/4
K: Gminor
D|G/G/G GA BGAG|FCDF G2GA|BGBd c2dg|fdcA BGG:|
g|bgdg dgbg|afcf AFcA|bgdg dgbg|fdcA BGGg|
bgdg dgbg|afcB AFFA|BGBd c2dg|fdcA BGG||

